cached_logos/intrinsic.svg

<?xml version="1.0" encoding="UTF-8" standalone="yes"?>
<svg xmlns="http://www.w3.org/2000/svg"   viewBox="-1.9000000000000057 -0.3999999999999986 98.8 20.8">
  <path fill="#142640" d="M95,19.9766628 L90.4617834,19.9766628 C86.2028417,19.9766628 82.7584517,16.5227538 82.7584517,12.252042 C82.7584517,7.98133022 86.2028417,4.52742124 90.4617834,4.52742124 L95,4.52742124 L95,7.16452742 L90.4617834,7.16452742 C87.6457619,7.16452742 85.3882901,9.45157526 85.3882901,12.252042 C85.3882901,15.075846 87.6690348,17.3395566 90.4617834,17.3395566 L95,17.3395566 L95,19.9766628 Z M73.6587457,7.16452742 L73.6587457,7.16452742 L67.6543361,7.16452742 C66.6070554,7.16452742 65.7692308,8.00466744 65.7692308,9.05484247 C65.7692308,10.1050175 66.6070554,10.9451575 67.6543361,10.9451575 L70.4936306,10.9451575 C72.099461,10.9451575 73.588927,11.8086348 74.4034787,13.2088681 C75.2180304,14.6091015 75.2180304,16.336056 74.4034787,17.7362894 C73.588927,19.1365228 72.099461,20 70.4936306,20 L64.0237629,20 L64.0237629,17.3628938 L70.4936306,17.3628938 C71.5409113,17.3628938 72.3787359,16.5227538 72.3787359,15.4725788 C72.3787359,14.4224037 71.5409113,13.5822637 70.4936306,13.5822637 L67.6543361,13.5822637 C65.1641352,13.5822637 63.1393925,11.5519253 63.1393925,9.05484247 C63.1393925,6.55775963 65.1641352,4.52742124 67.6543361,4.52742124 L73.6587457,4.52742124 L73.6587457,7.16452742 Z M60.5095541,19.9766628 L57.9262616,19.9766628 L57.9262616,11.1085181 C57.9262616,8.91481914 56.1575208,7.1411902 53.9698677,7.1411902 C51.7822146,7.1411902 50.0134738,8.91481914 50.0134738,11.1085181 L50.0134738,19.9766628 L47.3836355,19.9766628 L47.3836355,11.1085181 C47.3836355,7.46791132 50.3160216,4.52742124 53.9465948,4.52742124 C57.5771681,4.52742124 60.5095541,7.46791132 60.5095541,11.1085181 L60.5095541,19.9766628 Z M41.8679569,0 L44.4977952,0 L44.4977952,2.63710618 L41.8679569,2.63710618 L41.8679569,0 Z M41.8679569,4.52742124 L44.4977952,4.52742124 L44.4977952,19.9766628 L41.8679569,19.9766628 L41.8679569,4.52742124 Z M25.3674669,0.513418903 L25.3674669,5.04084014 L27.9973052,5.04084014 L27.9973052,7.6546091 L25.3674669,7.6546091 L25.3674669,19.9766628 L22.7376286,19.9766628 L22.7376286,7.6546091 L20.1310632,7.6546091 L20.1310632,5.04084014 L22.7376286,5.04084014 L22.7376286,0.513418903 L25.3674669,0.513418903 Z M0,4.52742124 L2.62983831,4.52742124 L2.62983831,19.9766628 L0,19.9766628 L0,4.52742124 Z M0,0 L2.62983831,0 L2.62983831,2.63710618 L0,2.63710618 L0,0 Z M19.2699657,19.9766628 L16.6866732,19.9766628 L16.6866732,11.1085181 C16.6866732,8.91481914 14.9179324,7.1411902 12.7302793,7.1411902 C10.5426262,7.1411902 8.77388535,8.91481914 8.77388535,11.1085181 L8.77388535,19.9766628 L6.14404704,19.9766628 L6.14404704,11.1085181 C6.14404704,7.46791132 9.07643312,4.52742124 12.7070064,4.52742124 C16.3375796,4.52742124 19.2699657,7.46791132 19.2699657,11.1085181 L19.2699657,19.9766628 Z M77.4987751,0 L80.1286134,0 L80.1286134,2.63710618 L77.4987751,2.63710618 L77.4987751,0 Z M77.4987751,4.52742124 L80.1286134,4.52742124 L80.1286134,19.9766628 L77.4987751,19.9766628 L77.4987751,4.52742124 Z M37.8882901,7.16452742 C35.7006369,7.16452742 33.9318961,8.93815636 33.9318961,11.1318553 L33.9318961,20 L31.3020578,20 L31.3020578,11.1318553 L31.3020578,4.55075846 L33.9318961,4.55075846 L33.9318961,5.88098016 C35.0257227,5.04084014 36.3988241,4.55075846 37.8882901,4.55075846 L39.2381186,4.55075846 L39.2381186,7.18786464 L37.8882901,7.18786464 L37.8882901,7.16452742 Z"/>
</svg>

<svg xmlns="http://www.w3.org/2000/svg" role="img" viewBox="-1.90 -1.90 98.67 23.67"><title>Intrinsic logo</title><path fill="#142640" d="M95 19.977h-4.538c-4.26 0-7.704-3.454-7.704-7.725 0-4.27 3.445-7.725 7.704-7.725H95v2.638h-4.538c-2.816 0-5.074 2.287-5.074 5.087a5.077 5.077 0 0 0 5.074 5.088H95v2.637zM73.659 7.165h-6.005a1.88 1.88 0 0 0-1.885 1.89c0 1.05.838 1.89 1.885 1.89h2.84c1.605 0 3.095.864 3.91 2.264a4.5 4.5 0 0 1 0 4.527A4.532 4.532 0 0 1 70.493 20h-6.47v-2.637h6.47a1.88 1.88 0 0 0 1.885-1.89 1.88 1.88 0 0 0-1.885-1.89h-2.84c-2.49 0-4.515-2.031-4.515-4.528 0-2.497 2.025-4.528 4.515-4.528h6.005v2.638zm-13.15 12.812h-2.583v-8.868A3.959 3.959 0 0 0 53.97 7.14a3.959 3.959 0 0 0-3.957 3.968v8.868h-2.63v-8.868c0-3.641 2.933-6.582 6.564-6.582 3.63 0 6.563 2.94 6.563 6.582v8.868zM41.869 0h2.63v2.637h-2.63V0zm0 4.527h2.63v15.45h-2.63V4.527zM25.368.513v4.528h2.63v2.614h-2.63v12.322h-2.63V7.655H20.13V5.04h2.607V.513h2.63zM0 4.527h2.63v15.45H0V4.527zM0 0h2.63v2.637H0V0zm19.27 19.977h-2.583v-8.868A3.959 3.959 0 0 0 12.73 7.14a3.959 3.959 0 0 0-3.956 3.968v8.868h-2.63v-8.868c0-3.641 2.932-6.582 6.563-6.582 3.63 0 6.563 2.94 6.563 6.582v8.868zM77.499 0h2.63v2.637h-2.63V0zm0 4.527h2.63v15.45h-2.63V4.527zm-39.61 2.638a3.959 3.959 0 0 0-3.957 3.967V20h-2.63V4.551h2.63v1.33a6.467 6.467 0 0 1 3.956-1.33h1.35v2.637h-1.35v-.023z"/></svg>
